src/assets/filled/VideoVertical.svg

<svg width="24" height="24" viewBox="0 0 24 24"  xmlns="http://www.w3.org/2000/svg">
<path d="M6.36 7.78003H2V11.25H6.36V7.78003Z" />
<path d="M6.3599 6.28988V2.12988C4.0799 2.54988 2.5899 4.01988 2.1499 6.27988H6.3299C6.3399 6.27988 6.3499 6.28988 6.3599 6.28988Z" />
<path d="M6.36 16.31V12.75H2V16.28H6.24C6.28 16.28 6.32 16.3 6.36 16.31Z" />
<path d="M21.8501 6.27993C21.4201 4.08993 20.0201 2.64993 17.8601 2.17993V6.27993H21.8501Z" />
<path d="M16.3601 11.25V2.01C16.3101 2 16.2501 2 16.1901 2H7.86011V11.25H16.3601Z" />
<path d="M22.0001 12.75H17.8601V16.28H22.0001V12.75Z" />
<path d="M17.8601 21.82C20.0001 21.35 21.4001 19.93 21.8401 17.78H17.8601V21.82Z" />
<path d="M6.23991 17.78H2.15991C2.61991 20 4.09991 21.45 6.35991 21.87V17.76C6.31991 17.77 6.27991 17.78 6.23991 17.78Z" />
<path d="M22.0001 7.78003H17.8601V11.25H22.0001V7.78003Z" />
<path d="M7.86011 12.75V22H16.1901C16.2501 22 16.3101 22 16.3601 21.99V12.75H7.86011Z" />
</svg>

<?xml version="1.0" encoding="UTF-8"?>
<svg width="24" height="24" viewBox="0 0 24 24" xmlns="http://www.w3.org/2000/svg">
 <path d="m6.36 7.78h-4.36v3.47h4.36v-3.47z"/>
 <path d="m6.3599 6.2899v-4.16c-2.28 0.42-3.77 1.89-4.21 4.15h4.18c0.01 0 0.02 0.01 0.03 0.01z"/>
 <path d="m6.36 16.31v-3.56h-4.36v3.53h4.24c0.04 0 0.08 0.02 0.12 0.03z"/>
 <path d="m21.85 6.2799c-0.43-2.19-1.83-3.63-3.99-4.1v4.1h3.99z"/>
 <path d="m16.36 11.25v-9.24c-0.05-0.01-0.11-0.01-0.17-0.01h-8.33v9.25h8.5z"/>
 <path d="m22 12.75h-4.14v3.53h4.14v-3.53z"/>
 <path d="m17.86 21.82c2.14-0.47 3.54-1.89 3.98-4.04h-3.98v4.04z"/>
 <path d="m6.2399 17.78h-4.08c0.46 2.22 1.94 3.67 4.2 4.09v-4.11c-0.04 0.01-0.08 0.02-0.12 0.02z"/>
 <path d="m22 7.78h-4.14v3.47h4.14v-3.47z"/>
 <path d="m7.8601 12.75v9.25h8.33c0.06 0 0.12 0 0.17-0.01v-9.24h-8.5z"/>
</svg>
